; G-Code generated by Simplify3D(R) Version 3.0.2
; Feb 15, 2017 at 10:01:31 PM
; Settings Summary
;   processName,Process1
;   applyToModels,BuggyRearTower,BuggyFrontTower
;   profileName,Wanhao Duplicator i3 (modified)
;   profileVersion,2017-02-15 21:13:08
;   baseProfile,
;   printMaterial,PLA
;   printQuality,Medium
;   printExtruders,
;   extruderName,Primary Extruder
;   extruderToolheadNumber,0
;   extruderDiameter,0.4
;   extruderAutoWidth,0
;   extruderWidth,0.4
;   extrusionMultiplier,0.9
;   extruderUseRetract,1
;   extruderRetractionDistance,1
;   extruderExtraRestartDistance,0
;   extruderRetractionZLift,0
;   extruderRetractionSpeed,1800
;   extruderUseCoasting,0
;   extruderCoastingDistance,0.2
;   extruderUseWipe,0
;   extruderWipeDistance,5
;   primaryExtruder,0
;   layerHeight,0.2
;   topSolidLayers,3
;   bottomSolidLayers,3
;   perimeterOutlines,2
;   printPerimetersInsideOut,1
;   startPointOption,2
;   startPointOriginX,0
;   startPointOriginY,0
;   startPointOriginZ,300
;   sequentialIslands,0
;   spiralVaseMode,0
;   firstLayerHeightPercentage,90
;   firstLayerWidthPercentage,100
;   firstLayerUnderspeed,0.5
;   useRaft,0
;   raftExtruder,0
;   raftLayers,3
;   raftOffset,3
;   raftSeparationDistance,0.14
;   raftInfill,85
;   disableRaftBaseLayers,0
;   useSkirt,1
;   skirtExtruder,0
;   skirtLayers,1
;   skirtOutlines,2
;   skirtOffset,3
;   usePrimePillar,0
;   primePillarExtruder,999
;   primePillarWidth,12
;   primePillarLocation,7
;   primePillarSpeedMultiplier,1
;   useOozeShield,0
;   oozeShieldExtruder,999
;   oozeShieldOffset,2
;   oozeShieldOutlines,1
;   oozeShieldSidewallShape,1
;   oozeShieldSidewallAngle,30
;   oozeShieldSpeedMultiplier,1
;   infillExtruder,0
;   internalInfillPattern,Rectilinear
;   externalInfillPattern,Rectilinear
;   infillPercentage,30
;   outlineOverlapPercentage,25
;   infillExtrusionWidthPercentage,125
;   minInfillLength,5
;   infillLayerInterval,1
;   infillAngles,45,-45
;   overlapInfillAngles,0
;   generateSupport,0
;   supportExtruder,0
;   supportInfillPercentage,30
;   supportExtraInflation,0
;   denseSupportLayers,0
;   denseSupportInfillPercentage,70
;   supportLayerInterval,1
;   supportHorizontalPartOffset,0.3
;   supportUpperSeparationLayers,1
;   supportLowerSeparationLayers,1
;   supportType,0
;   supportGridSpacing,4
;   maxOverhangAngle,20
;   supportAngles,0
;   temperatureName,Primary Extruder,Heated Bed
;   temperatureNumber,0,0
;   temperatureSetpointCount,1,1
;   temperatureSetpointLayers,1,1
;   temperatureSetpointTemperatures,190,60
;   temperatureStabilizeAtStartup,1,1
;   temperatureHeatedBed,0,1
;   temperatureRelayBetweenLayers,0,0
;   temperatureRelayBetweenLoops,0,0
;   fanLayers,1,2
;   fanSpeeds,0,100
;   blipFanToFullPower,0
;   adjustSpeedForCooling,1
;   minSpeedLayerTime,15
;   minCoolingSpeedSlowdown,20
;   increaseFanForCooling,0
;   minFanLayerTime,45
;   maxCoolingFanSpeed,100
;   increaseFanForBridging,0
;   bridgingFanSpeed,100
;   use5D,1
;   relativeEdistances,0
;   allowEaxisZeroing,1
;   independentExtruderAxes,0
;   includeM10123,0
;   stickySupport,1
;   applyToolheadOffsets,0
;   gcodeXoffset,0
;   gcodeYoffset,0
;   gcodeZoffset,0
;   overrideMachineDefinition,1
;   machineTypeOverride,0
;   strokeXoverride,200
;   strokeYoverride,200
;   strokeZoverride,180
;   originOffsetXoverride,0
;   originOffsetYoverride,0
;   originOffsetZoverride,0
;   homeXdirOverride,-1
;   homeYdirOverride,-1
;   homeZdirOverride,-1
;   flipXoverride,1
;   flipYoverride,-1
;   flipZoverride,1
;   toolheadOffsets,0,0|0,0|0,0|0,0|0,0|0,0
;   overrideFirmwareConfiguration,1
;   firmwareTypeOverride,RepRap (Marlin/Repetier/Sprinter)
;   GPXconfigOverride,r2
;   baudRateOverride,115200
;   overridePrinterModels,1
;   printerModelsOverride
;   startingGcode,G28 ; home all axes
;   layerChangeGcode,
;   retractionGcode,
;   toolChangeGcode,
;   endingGcode,G28 X0 ; home X-axis,M104 S0 ; turn off extruder,M140 S0 ; turn off bed,M84 ; disable motors
;   createX3G,0
;   celebration,0
;   celebrationSong,Random Song
;   createMB5G,0
;   postProcessing,
;   defaultSpeed,3600
;   outlineUnderspeed,0.5
;   solidInfillUnderspeed,0.8
;   supportUnderspeed,0.8
;   rapidXYspeed,4800
;   rapidZspeed,1000
;   minBridgingArea,50
;   bridgingExtraInflation,0
;   bridgingExtrusionMultiplier,1
;   bridgingSpeedMultiplier,1
;   filamentDiameter,1.75
;   filamentPricePerKg,46
;   filamentDensity,1.25
;   useMinPrintHeight,0
;   minPrintHeight,0
;   useMaxPrintHeight,0
;   maxPrintHeight,0
;   useDiaphragm,0
;   diaphragmLayerInterval,20
;   robustSlicing,1
;   mergeAllIntoSolid,0
;   onlyRetractWhenCrossingOutline,1
;   retractBetweenLayers,1
;   useRetractionMinTravel,0
;   retractionMinTravel,3
;   retractWhileWiping,0
;   onlyWipeOutlines,1
;   avoidCrossingOutline,0
;   maxMovementDetourFactor,3
;   toolChangeRetractionDistance,12
;   toolChangeExtraRestartDistance,-0.5
;   toolChangeRetractionSpeed,600
;   allowThinWallGapFill,1
;   thinWallAllowedOverlapPercentage,10
;   horizontalSizeCompensation,0
G90
M82
M106 S0
M140 S60
M190 S60
M104 S190 T0
M109 S190 T0
G28 ; home all axes
G92 E0
G1 E-1.0000 F1800
G1 Z0.180 F1000
; layer 1, Z = 0.18
T0
; tool H0.200 W0.400
; skirt
G1 X28.534 Y108.629 F4800
G1 E0.0000 F540
G92 E0
G1 X42.701 Y108.629 E0.4241 F1800
G1 X42.921 Y108.720 E0.4312
G1 X44.847 Y110.646 E0.5127
G1 X44.939 Y110.867 E0.5199
G1 X44.939 Y117.184 E0.7090
G1 X47.519 Y154.349 E1.8242
G1 X64.724 Y154.349 E2.3392
G1 X67.305 Y117.184 E3.4543
G1 X67.305 Y110.867 E3.6434
G1 X67.396 Y110.646 E3.6506
G1 X69.323 Y108.720 E3.7321
G1 X69.543 Y108.629 E3.7393
G1 X83.709 Y108.629 E4.1633
G1 X83.930 Y108.720 E4.1705
G1 X85.856 Y110.646 E4.2520
G1 X85.947 Y110.867 E4.2592
G1 X85.947 Y118.671 E4.4928
G1 X85.856 Y118.891 E4.4999
G1 X83.930 Y120.818 E4.5814
G1 X83.709 Y120.909 E4.5886
G1 X79.356 Y120.909 E4.7189
G1 X76.410 Y163.333 E5.9919
G1 X83.500 Y163.333 E6.2041
G1 X86.081 Y126.168 E7.3193
G1 X86.081 Y119.851 E7.5084
G1 X86.172 Y119.631 E7.5155
G1 X88.098 Y117.705 E7.5971
G1 X88.319 Y117.613 E7.6042
G1 X102.485 Y117.613 E8.0283
G1 X102.705 Y117.705 E8.0354
G1 X104.632 Y119.631 E8.1170
G1 X104.723 Y119.851 E8.1241
G1 X104.723 Y127.655 E8.3577
G1 X104.632 Y127.876 E8.3649
G1 X102.705 Y129.802 E8.4464
G1 X102.485 Y129.893 E8.4536
G1 X98.132 Y129.893 E8.5839
G1 X95.100 Y173.556 E9.8940
G1 X95.002 Y173.761 E9.9008
G1 X93.106 Y175.530 E9.9784
G1 X92.894 Y175.613 E9.9852
G1 X18.737 Y175.613 E12.2051
G1 X18.525 Y175.530 E12.2119
G1 X16.630 Y173.761 E12.2895
G1 X16.532 Y173.556 E12.2963
G1 X13.500 Y129.893 E13.6064
G1 X9.146 Y129.893 E13.7368
G1 X8.926 Y129.802 E13.7439
G1 X7.000 Y127.876 E13.8254
G1 X6.908 Y127.655 E13.8326
G1 X6.908 Y119.851 E14.0662
G1 X7.000 Y119.631 E14.0733
G1 X8.926 Y117.705 E14.1549
G1 X9.146 Y117.613 E14.1620
G1 X23.313 Y117.613 E14.5861
G1 X23.533 Y117.705 E14.5932
G1 X25.459 Y119.631 E14.6748
G1 X25.551 Y119.851 E14.6819
G1 X25.551 Y126.168 E14.8710
G1 X28.132 Y163.333 E15.9862
G1 X35.834 Y163.333 E16.2167
G1 X32.888 Y120.909 E17.4897
G1 X28.534 Y120.909 E17.6200
G1 X28.314 Y120.818 E17.6272
G1 X26.388 Y118.891 E17.7087
G1 X26.296 Y118.671 E17.7159
G1 X26.296 Y110.867 E17.9495
G1 X26.388 Y110.646 E17.9566
G1 X28.314 Y108.720 E18.0382
G1 X28.534 Y108.629 E18.0453
G1 X28.614 Y109.029 F4800
G92 E0
G1 X42.621 Y109.029 E0.4193 F1800
G1 X42.695 Y109.059 E0.4217
G1 X44.508 Y110.873 E0.4984
G1 X44.539 Y110.947 E0.5008
G1 X44.539 Y117.198 E0.6880
G1 X47.146 Y154.749 E1.8147
G1 X65.097 Y154.749 E2.3521
G1 X67.705 Y117.198 E3.4788
G1 X67.705 Y110.947 E3.6660
G1 X67.736 Y110.873 E3.6684
G1 X69.549 Y109.059 E3.7451
G1 X69.623 Y109.029 E3.7475
G1 X83.630 Y109.029 E4.1668
G1 X83.703 Y109.059 E4.1692
G1 X85.517 Y110.873 E4.2460
G1 X85.547 Y110.947 E4.2483
G1 X85.547 Y118.591 E4.4772
G1 X85.517 Y118.665 E4.4796
G1 X83.703 Y120.479 E4.5563
G1 X83.630 Y120.509 E4.5587
G1 X78.983 Y120.509 E4.6978
G1 X75.981 Y163.733 E5.9948
G1 X83.873 Y163.733 E6.2311
G1 X86.481 Y126.182 E7.3578
G1 X86.481 Y119.931 E7.5450
G1 X86.511 Y119.857 E7.5473
G1 X88.325 Y118.044 E7.6241
G1 X88.398 Y118.013 E7.6265
G1 X102.405 Y118.013 E8.0458
G1 X102.479 Y118.044 E8.0482
G1 X104.293 Y119.857 E8.1249
G1 X104.323 Y119.931 E8.1273
G1 X104.323 Y127.576 E8.3562
G1 X104.293 Y127.649 E8.3585
G1 X102.479 Y129.463 E8.4353
G1 X102.405 Y129.493 E8.4377
G1 X97.758 Y129.493 E8.5768
G1 X94.706 Y173.452 E9.8958
G1 X94.673 Y173.521 E9.8981
G1 X92.889 Y175.185 E9.9712
G1 X92.818 Y175.213 E9.9734
G1 X18.813 Y175.213 E12.1887
G1 X18.743 Y175.185 E12.1910
G1 X16.958 Y173.521 E12.2640
G1 X16.926 Y173.452 E12.2663
G1 X13.873 Y129.493 E13.5853
G1 X9.226 Y129.493 E13.7244
G1 X9.153 Y129.463 E13.7268
G1 X7.339 Y127.649 E13.8036
G1 X7.308 Y127.576 E13.8060
G1 X7.308 Y119.931 E14.0348
G1 X7.339 Y119.857 E14.0372
G1 X9.153 Y118.044 E14.1140
G1 X9.226 Y118.013 E14.1164
G1 X23.233 Y118.013 E14.5357
G1 X23.307 Y118.044 E14.5380
G1 X25.120 Y119.857 E14.6148
G1 X25.151 Y119.931 E14.6172
G1 X25.151 Y126.182 E14.8043
G1 X27.758 Y163.733 E15.9311
G1 X36.263 Y163.733 E16.1857
G1 X33.261 Y120.509 E17.4827
G1 X28.614 Y120.509 E17.6218
G1 X28.540 Y120.479 E17.6241
G1 X26.727 Y118.665 E17.7009
G1 X26.696 Y118.591 E17.7033
G1 X26.696 Y110.947 E17.9321
G1 X26.727 Y110.873 E17.9345
G1 X28.540 Y109.059 E18.0113
G1 X28.614 Y109.029 E18.0137
G92 E0
G1 E-1.0000 F1800
; inner perimeter
G1 X30.496 Y112.829 F4800
G1 E0.0000 F1800
G92 E0
G1 X40.739 Y112.829 E0.3066 F1350
G1 X40.739 Y117.330 E0.4413
G1 X43.601 Y158.549 E1.6782
G1 X68.643 Y158.549 E2.4278
G1 X71.505 Y117.330 E3.6646
G1 X71.505 Y112.829 E3.7993
G1 X81.747 Y112.829 E4.1059
G1 X81.747 Y116.709 E4.2220
G1 X75.438 Y116.709 E4.4109
G1 X72.263 Y162.429 E5.7828
G1 X39.981 Y162.429 E6.7491
G1 X36.806 Y116.709 E8.1210
G1 X30.496 Y116.709 E8.3099
G1 X30.496 Y112.829 E8.4260
; outer perimeter
G1 X30.096 Y112.429 F4800
G92 E0
G1 X41.139 Y112.429 E0.3305 F900
G1 X41.139 Y117.316 E0.4768
G1 X43.974 Y158.149 E1.7021
G1 X68.269 Y158.149 E2.4293
G1 X71.105 Y117.316 E3.6546
G1 X71.105 Y112.429 E3.8009
G1 X82.147 Y112.429 E4.1314
G1 X82.147 Y117.109 E4.2715
G1 X75.811 Y117.109 E4.4612
G1 X72.636 Y162.829 E5.8331
G1 X39.608 Y162.829 E6.8217
G1 X36.433 Y117.109 E8.1936
G1 X30.096 Y117.109 E8.3833
G1 X30.096 Y112.429 E8.5234
; solid layer
G1 X30.796 Y113.400 F4800
G92 E0
G1 X31.068 Y113.129 E0.0115 F1440
G1 X31.634 Y113.129 E0.0284
G1 X30.796 Y113.966 E0.0639
G1 X30.796 Y114.532 E0.0808
G1 X32.199 Y113.129 E0.1402
G1 X32.765 Y113.129 E0.1571
G1 X30.796 Y115.098 E0.2405
G1 X30.796 Y115.663 E0.2574
G1 X33.331 Y113.129 E0.3647
G1 X33.896 Y113.129 E0.3816
G1 X30.796 Y116.229 E0.5128
G1 X30.796 Y116.409 E0.5182
G1 X31.182 Y116.409 E0.5298
G1 X34.462 Y113.129 E0.6686
G1 X35.028 Y113.129 E0.6856
G1 X31.748 Y116.409 E0.8244
G1 X32.313 Y116.409 E0.8413
G1 X35.593 Y113.129 E0.9802
G1 X36.159 Y113.129 E0.9971
G1 X32.879 Y116.409 E1.1360
G1 X33.445 Y116.409 E1.1529
G1 X36.725 Y113.129 E1.2918
G1 X37.290 Y113.129 E1.3087
G1 X34.010 Y116.409 E1.4476
G1 X34.576 Y116.409 E1.4645
G1 X37.856 Y113.129 E1.6033
G1 X38.422 Y113.129 E1.6203
G1 X35.142 Y116.409 E1.7591
G1 X35.707 Y116.409 E1.7761
G1 X38.987 Y113.129 E1.9149
G1 X39.553 Y113.129 E1.9318
G1 X36.273 Y116.409 E2.0707
G1 X36.839 Y116.409 E2.0876
G1 X40.119 Y113.129 E2.2265
G1 X40.439 Y113.129 E2.2361
G1 X40.439 Y113.375 E2.2434
G1 X37.107 Y116.707 E2.3845
G1 X37.143 Y117.236 E2.4003
G1 X40.439 Y113.941 E2.5398
G1 X40.439 Y114.506 E2.5568
G1 X37.180 Y117.765 E2.6947
G1 X37.217 Y118.294 E2.7106
G1 X40.439 Y115.072 E2.8470
G1 X40.439 Y115.638 E2.8639
G1 X37.254 Y118.823 E2.9987
G1 X37.290 Y119.352 E3.0146
G1 X40.439 Y116.203 E3.1479
G1 X40.439 Y116.769 E3.1648
G1 X37.327 Y119.880 E3.2965
G1 X37.364 Y120.409 E3.3124
G1 X40.439 Y117.335 E3.4426
G1 X40.439 Y117.340 E3.4427
G1 X40.475 Y117.864 E3.4584
G1 X37.401 Y120.938 E3.5886
G1 X37.437 Y121.467 E3.6045
G1 X40.512 Y118.393 E3.7346
G1 X40.548 Y118.922 E3.7505
G1 X37.474 Y121.996 E3.8806
G1 X37.511 Y122.525 E3.8965
G1 X40.585 Y119.451 E4.0267
G1 X40.622 Y119.980 E4.0425
G1 X37.548 Y123.054 E4.1727
G1 X37.584 Y123.583 E4.1885
G1 X40.659 Y120.509 E4.3187
G1 X40.695 Y121.038 E4.3346
G1 X37.621 Y124.112 E4.4647
G1 X37.658 Y124.641 E4.4806
G1 X40.732 Y121.567 E4.6107
G1 X40.769 Y122.096 E4.6266
G1 X37.694 Y125.170 E4.7568
G1 X37.731 Y125.699 E4.7726
G1 X40.806 Y122.625 E4.9028
G1 X40.842 Y123.154 E4.9187
G1 X37.768 Y126.228 E5.0488
G1 X37.805 Y126.757 E5.0647
G1 X40.879 Y123.682 E5.1948
G1 X40.916 Y124.211 E5.2107
G1 X37.841 Y127.286 E5.3408
G1 X37.878 Y127.815 E5.3567
G1 X40.953 Y124.740 E5.4869
G1 X40.989 Y125.269 E5.5027
G1 X37.915 Y128.344 E5.6329
G1 X37.952 Y128.873 E5.6488
G1 X41.026 Y125.798 E5.7789
G1 X41.063 Y126.327 E5.7948
G1 X37.988 Y129.402 E5.9249
G1 X38.025 Y129.931 E5.9408
G1 X41.099 Y126.856 E6.0710
G1 X41.136 Y127.385 E6.0868
G1 X38.062 Y130.460 E6.2170
G1 X38.098 Y130.988 E6.2328
G1 X41.173 Y127.914 E6.3630
G1 X41.210 Y128.443 E6.3789
G1 X38.135 Y131.517 E6.5090
G1 X38.172 Y132.046 E6.5249
G1 X41.246 Y128.972 E6.6550
G1 X41.283 Y129.501 E6.6709
G1 X38.209 Y132.575 E6.8011
G1 X38.245 Y133.104 E6.8169
G1 X41.320 Y130.030 E6.9471
G1 X41.357 Y130.559 E6.9630
G1 X38.282 Y133.633 E7.0931
G1 X38.319 Y134.162 E7.1090
G1 X41.393 Y131.088 E7.2391
G1 X41.430 Y131.617 E7.2550
G1 X38.356 Y134.691 E7.3851
G1 X38.392 Y135.220 E7.4010
G1 X41.467 Y132.146 E7.5312
G1 X41.503 Y132.675 E7.5470
G1 X38.429 Y135.749 E7.6772
G1 X38.466 Y136.278 E7.6931
G1 X41.540 Y133.204 E7.8232
G1 X41.577 Y133.733 E7.8391
G1 X38.503 Y136.807 E7.9692
G1 X38.539 Y137.336 E7.9851
G1 X41.614 Y134.262 E8.1153
G1 X41.650 Y134.790 E8.1311
G1 X38.576 Y137.865 E8.2613
G1 X38.613 Y138.394 E8.2771
G1 X41.687 Y135.319 E8.4073
G1 X41.724 Y135.848 E8.4232
G1 X38.649 Y138.923 E8.5533
G1 X38.686 Y139.452 E8.5692
G1 X41.761 Y136.377 E8.6993
G1 X41.797 Y136.906 E8.7152
G1 X38.723 Y139.981 E8.8454
G1 X38.760 Y140.510 E8.8612
G1 X41.834 Y137.435 E8.9914
G1 X41.871 Y137.964 E9.0072
G1 X38.796 Y141.039 E9.1374
G1 X38.833 Y141.568 E9.1533
G1 X41.908 Y138.493 E9.2834
G1 X41.944 Y139.022 E9.2993
G1 X38.870 Y142.096 E9.4294
G1 X38.907 Y142.625 E9.4453
G1 X41.981 Y139.551 E9.5755
G1 X42.018 Y140.080 E9.5913
G1 X38.943 Y143.154 E9.7215
G1 X38.980 Y143.683 E9.7374
G1 X42.054 Y140.609 E9.8675
G1 X42.091 Y141.138 E9.8834
G1 X39.017 Y144.212 E10.0135
G1 X39.054 Y144.741 E10.0294
G1 X42.128 Y141.667 E10.1595
G1 X42.165 Y142.196 E10.1754
G1 X39.090 Y145.270 E10.3056
G1 X39.127 Y145.799 E10.3214
G1 X42.201 Y142.725 E10.4516
G1 X42.238 Y143.254 E10.4675
G1 X39.164 Y146.328 E10.5976
G1 X39.200 Y146.857 E10.6135
G1 X42.275 Y143.783 E10.7436
G1 X42.312 Y144.312 E10.7595
G1 X39.237 Y147.386 E10.8897
G1 X39.274 Y147.915 E10.9055
G1 X42.348 Y144.841 E11.0357
G1 X42.385 Y145.370 E11.0515
G1 X39.311 Y148.444 E11.1817
G1 X39.347 Y148.973 E11.1976
G1 X42.422 Y145.898 E11.3277
G1 X42.459 Y146.427 E11.3436
G1 X39.384 Y149.502 E11.4737
G1 X39.421 Y150.031 E11.4896
G1 X42.495 Y146.956 E11.6198
G1 X42.532 Y147.485 E11.6356
G1 X39.458 Y150.560 E11.7658
G1 X39.494 Y151.089 E11.7817
G1 X42.569 Y148.014 E11.9118
G1 X42.605 Y148.543 E11.9277
G1 X39.531 Y151.618 E12.0578
G1 X39.568 Y152.147 E12.0737
G1 X42.642 Y149.072 E12.2038
G1 X42.679 Y149.601 E12.2197
G1 X39.605 Y152.676 E12.3499
G1 X39.641 Y153.204 E12.3657
G1 X42.716 Y150.130 E12.4959
G1 X42.752 Y150.659 E12.5118
G1 X39.678 Y153.733 E12.6419
G1 X39.715 Y154.262 E12.6578
G1 X42.789 Y151.188 E12.7879
G1 X42.826 Y151.717 E12.8038
