; G-Code generated by Simplify3D(R) Version 3.0.2
; Feb 15, 2017 at 8:00:00 PM
; Settings Summary
;   processName,Mount B
;   applyToModels,Camera Mount B
;   profileName,Monoprice 3D Printer (modified)
;   profileVersion,2017-02-15 19:45:43
;   baseProfile,
;   printMaterial,PLA
;   printQuality,Medium
;   printExtruders,Right Extruder Only
;   extruderName,Right Extruder,Left Extruder
;   extruderToolheadNumber,0,1
;   extruderDiameter,0.4,0.4
;   extruderAutoWidth,0,0
;   extruderWidth,0.3,0.4
;   extrusionMultiplier,0.9,0.9
;   extruderUseRetract,1,1
;   extruderRetractionDistance,1,1
;   extruderExtraRestartDistance,0,0
;   extruderRetractionZLift,0,0
;   extruderRetractionSpeed,1200,1200
;   extruderUseCoasting,0,0
;   extruderCoastingDistance,0.2,0.2
;   extruderUseWipe,0,0
;   extruderWipeDistance,5,5
;   primaryExtruder,0
;   layerHeight,0.2
;   topSolidLayers,3
;   bottomSolidLayers,3
;   perimeterOutlines,2
;   printPerimetersInsideOut,1
;   startPointOption,2
;   startPointOriginX,0
;   startPointOriginY,0
;   startPointOriginZ,300
;   sequentialIslands,0
;   spiralVaseMode,0
;   firstLayerHeightPercentage,90
;   firstLayerWidthPercentage,100
;   firstLayerUnderspeed,0.5
;   useRaft,0
;   raftExtruder,0
;   raftLayers,4
;   raftOffset,3.6
;   raftSeparationDistance,0.14
;   raftInfill,85
;   disableRaftBaseLayers,1
;   useSkirt,1
;   skirtExtruder,0
;   skirtLayers,1
;   skirtOutlines,2
;   skirtOffset,4
;   usePrimePillar,0
;   primePillarExtruder,999
;   primePillarWidth,12
;   primePillarLocation,7
;   primePillarSpeedMultiplier,1
;   useOozeShield,0
;   oozeShieldExtruder,999
;   oozeShieldOffset,2
;   oozeShieldOutlines,1
;   oozeShieldSidewallShape,1
;   oozeShieldSidewallAngle,30
;   oozeShieldSpeedMultiplier,1
;   infillExtruder,0
;   internalInfillPattern,Rectilinear
;   externalInfillPattern,Rectilinear
;   infillPercentage,70
;   outlineOverlapPercentage,20
;   infillExtrusionWidthPercentage,100
;   minInfillLength,5
;   infillLayerInterval,1
;   infillAngles,45,-45
;   overlapInfillAngles,0
;   generateSupport,0
;   supportExtruder,0
;   supportInfillPercentage,20
;   supportExtraInflation,0
;   denseSupportLayers,1
;   denseSupportInfillPercentage,70
;   supportLayerInterval,1
;   supportHorizontalPartOffset,0.1
;   supportUpperSeparationLayers,1
;   supportLowerSeparationLayers,1
;   supportType,0
;   supportGridSpacing,4
;   maxOverhangAngle,23
;   supportAngles,0
;   temperatureName,Right Extruder,Left Extruder,plate
;   temperatureNumber,0,1,0
;   temperatureSetpointCount,1,1,1
;   temperatureSetpointLayers,1,1,1
;   temperatureSetpointTemperatures,210,0,30
;   temperatureStabilizeAtStartup,0,0,1
;   temperatureHeatedBed,0,0,1
;   temperatureRelayBetweenLayers,0,0,0
;   temperatureRelayBetweenLoops,0,0,0
;   fanLayers,1,2
;   fanSpeeds,0,100
;   blipFanToFullPower,0
;   adjustSpeedForCooling,1
;   minSpeedLayerTime,15
;   minCoolingSpeedSlowdown,20
;   increaseFanForCooling,0
;   minFanLayerTime,45
;   maxCoolingFanSpeed,100
;   increaseFanForBridging,1
;   bridgingFanSpeed,100
;   use5D,1
;   relativeEdistances,1
;   allowEaxisZeroing,0
;   independentExtruderAxes,1
;   includeM10123,0
;   stickySupport,1
;   applyToolheadOffsets,0
;   gcodeXoffset,0
;   gcodeYoffset,0
;   gcodeZoffset,0
;   overrideMachineDefinition,1
;   machineTypeOverride,0
;   strokeXoverride,220
;   strokeYoverride,140
;   strokeZoverride,150
;   originOffsetXoverride,110
;   originOffsetYoverride,70
;   originOffsetZoverride,0
;   homeXdirOverride,1
;   homeYdirOverride,1
;   homeZdirOverride,-1
;   flipXoverride,1
;   flipYoverride,-1
;   flipZoverride,1
;   toolheadOffsets,0,0|34,0|0,0|0,0|0,0|0,0
;   overrideFirmwareConfiguration,1
;   firmwareTypeOverride,MakerBot/Sailfish Firmware
;   GPXconfigOverride,r1d
;   baudRateOverride,115200
;   overridePrinterModels,1
;   printerModelsOverride,MakerBot_Replicator1.stl
;   startingGcode,; **** Replicator 1 dual start.gcode ****,M73 P0 ; Enable build progress,G162 X Y F3000 ; Home XY maximum,G161 Z F1200 ; Home Z minimum,G92 Z-5 ; Set Z to -5,G1 Z0 ; Move Z to 0,G161 Z F100 ; Home Z slowly,M132 X Y Z A B ; Recall home offsets,M135 T0 ; Load right extruder offsets,G1 X-120 Y-70 Z30 F9000 ; Move to wait position off table,G130 X20 Y20 Z20 A20 B20 ; Lower stepper Vrefs while heating,M126 S[fan_speed_pwm] ; Set fan speed,M140 S[bed0_temperature] T0 ; Heat buildplate ,M134 T0 ; Stabilize bed temperature,M104 S[extruder0_temperature] T0 ; Heat right extruder,M133 T0 ; Stabilize right extruder temperature,G130 X127 Y127 Z40 A127 B127 ; Default stepper Vrefs,G92 A0 B0 ; Zero extruders,G1 X100 Y-70 F9000 ; Move to front right corner of bed,G1 Z0.3 F6000 ; Move down to purge,G1 X-90 Y-70 E24 F2000 ; Extrude a line of filament across the front edge of the bed,G1 X-100 Y-70 F180 ; Wait for ooze,G1 X-110 Y-70 F5000 ; Fast wipe,G1 Z0.5 F100 ; Lift,M73 P1 ;@body (notify GPX body has started),; **** end of start.gcode ****
;   layerChangeGcode,
;   retractionGcode,
;   toolChangeGcode,
;   endingGcode,; **** Replicator 1 dual end.gcode ****,M73 P100 ; end build progress,G1 Z150 F1000 ; send Z axis to bottom of machine,M140 S0 T0 ; cool down HBP,M104 S0 T0 ; cool down right extruder,M104 S0 T1 ; cool down left extruder,M127 ; stop blower fan,G162 X Y F3000 ; home XY maximum,M18 ; disable stepper,M72 P1 ; play Ta-Da song,; **** end of end.gcode ****
;   createX3G,1
;   celebration,0
;   celebrationSong,Random Song
;   createMB5G,0
;   postProcessing,
;   defaultSpeed,3600
;   outlineUnderspeed,0.5
;   solidInfillUnderspeed,0.8
;   supportUnderspeed,0.8
;   rapidXYspeed,4200
;   rapidZspeed,1200
;   minBridgingArea,50
;   bridgingExtraInflation,0
;   bridgingExtrusionMultiplier,1
;   bridgingSpeedMultiplier,0.8
;   filamentDiameter,1.75
;   filamentPricePerKg,46
;   filamentDensity,1.25
;   useMinPrintHeight,0
;   minPrintHeight,0
;   useMaxPrintHeight,0
;   maxPrintHeight,0
;   useDiaphragm,0
;   diaphragmLayerInterval,20
;   robustSlicing,1
;   mergeAllIntoSolid,0
;   onlyRetractWhenCrossingOutline,1
;   retractBetweenLayers,1
;   useRetractionMinTravel,0
;   retractionMinTravel,3
;   retractWhileWiping,0
;   onlyWipeOutlines,1
;   avoidCrossingOutline,0
;   maxMovementDetourFactor,3
;   toolChangeRetractionDistance,12
;   toolChangeExtraRestartDistance,-0.5
;   toolChangeRetractionSpeed,600
;   allowThinWallGapFill,1
;   thinWallAllowedOverlapPercentage,10
;   horizontalSizeCompensation,0
G90
M83
; **** Replicator 1 dual start.gcode ****
M73 P0 ; Enable build progress
G162 X Y F3000 ; Home XY maximum
G161 Z F1200 ; Home Z minimum
G92 Z-5 ; Set Z to -5
G1 Z0 ; Move Z to 0
G161 Z F100 ; Home Z slowly
M132 X Y Z A B ; Recall home offsets
M135 T0 ; Load right extruder offsets
G1 X-120 Y-70 Z30 F9000 ; Move to wait position off table
G130 X20 Y20 Z20 A20 B20 ; Lower stepper Vrefs while heating
M127 ; Set fan speed
M140 S30 T0 ; Heat buildplate 
M134 T0 ; Stabilize bed temperature
M104 S210 T0 ; Heat right extruder
M133 T0 ; Stabilize right extruder temperature
G130 X127 Y127 Z40 A127 B127 ; Default stepper Vrefs
G92 A0 B0 ; Zero extruders
G1 X100 Y-70 F9000 ; Move to front right corner of bed
G1 Z0.3 F6000 ; Move down to purge
G1 X-90 Y-70 E24 F2000 ; Extrude a line of filament across the front edge of the bed
G1 X-100 Y-70 F180 ; Wait for ooze
G1 X-110 Y-70 F5000 ; Fast wipe
G1 Z0.5 F100 ; Lift
M73 P1 ;@body (notify GPX body has started)
; **** end of start.gcode ****
G1 E-1.0000 F1200
G1 Z0.180 F1200
; layer 1, Z = 0.18
M135 T0
; tool H0.200 W0.300
; skirt
G1 X-25.265 Y-6.069 F4200
G1 E1.0000 F360
G1 X-25.333 Y-5.904 E0.0040 F1800
G1 X-27.803 Y-3.434 E0.0784
G1 X-27.968 Y-3.365 E0.0040
G1 X-56.861 Y-3.365 E0.6487
G1 X-57.026 Y-3.434 E0.0040
G1 X-59.496 Y-5.904 E0.0784
G1 X-59.565 Y-6.069 E0.0040
G1 X-59.565 Y-41.312 E0.7912
G1 X-59.496 Y-41.477 E0.0040
G1 X-57.026 Y-43.947 E0.0784
G1 X-56.861 Y-44.015 E0.0040
G1 X-27.968 Y-44.015 E0.6487
G1 X-27.803 Y-43.947 E0.0040
G1 X-25.333 Y-41.477 E0.0784
G1 X-25.265 Y-41.312 E0.0040
G1 X-25.265 Y-6.069 E0.7912
G1 X-25.565 Y-6.129 F4200
G1 X-25.587 Y-6.073 E0.0013 F1800
G1 X-27.973 Y-3.688 E0.0757
G1 X-28.028 Y-3.665 E0.0013
G1 X-56.801 Y-3.665 E0.6460
G1 X-56.856 Y-3.688 E0.0013
G1 X-59.242 Y-6.073 E0.0757
G1 X-59.265 Y-6.129 E0.0013
G1 X-59.265 Y-41.252 E0.7885
G1 X-59.242 Y-41.307 E0.0013
G1 X-56.856 Y-43.692 E0.0757
G1 X-56.801 Y-43.715 E0.0013
G1 X-28.028 Y-43.715 E0.6460
G1 X-27.973 Y-43.692 E0.0013
G1 X-25.587 Y-41.307 E0.0757
G1 X-25.565 Y-41.252 E0.0013
G1 X-25.565 Y-6.129 E0.7885
G1 E-1.0000 F1200
; inner perimeter
G1 X-30.165 Y-8.265 F4200
G1 E1.0000 F1200
G1 X-54.665 Y-8.265 E0.5500 F1350
G1 X-54.665 Y-39.115 E0.6926
G1 X-30.165 Y-39.115 E0.5500
G1 X-30.165 Y-8.265 E0.6926
; outer perimeter
G1 X-29.865 Y-7.965 F4200
G1 X-54.965 Y-7.965 E0.5635 F900
G1 X-54.965 Y-39.415 E0.7061
G1 X-29.865 Y-39.415 E0.5635
G1 X-29.865 Y-7.965 E0.7061
; inner perimeter
G1 X-31.946 Y-11.189 F4200
G1 X-31.734 Y-11.475 E0.0080 F1350
G1 X-31.574 Y-11.794 E0.0080
G1 X-31.469 Y-12.135 E0.0080
G1 X-31.424 Y-12.489 E0.0080
G1 X-31.439 Y-12.845 E0.0080
G1 X-31.514 Y-13.194 E0.0080
G1 X-31.647 Y-13.524 E0.0080
G1 X-31.834 Y-13.828 E0.0080
G1 X-32.070 Y-14.096 E0.0080
G1 X-32.347 Y-14.320 E0.0080
G1 X-32.659 Y-14.494 E0.0080
G1 X-32.995 Y-14.613 E0.0080
G1 X-33.342 Y-14.671 E0.0079
G1 X-33.525 Y-14.679 E0.0041
G1 X-33.712 Y-14.671 E0.0042
G1 X-34.054 Y-14.613 E0.0078
G1 X-34.391 Y-14.494 E0.0080
G1 X-34.702 Y-14.320 E0.0080
G1 X-34.980 Y-14.096 E0.0080
G1 X-35.215 Y-13.828 E0.0080
G1 X-35.402 Y-13.524 E0.0080
G1 X-35.535 Y-13.194 E0.0080
G1 X-35.610 Y-12.845 E0.0080
G1 X-35.625 Y-12.489 E0.0080
G1 X-35.580 Y-12.135 E0.0080
G1 X-35.476 Y-11.794 E0.0080
G1 X-35.315 Y-11.475 E0.0080
G1 X-35.103 Y-11.189 E0.0080
G1 X-34.846 Y-10.942 E0.0080
G1 X-34.550 Y-10.742 E0.0080
G1 X-34.225 Y-10.595 E0.0080
G1 X-33.880 Y-10.505 E0.0080
G1 X-33.525 Y-10.475 E0.0080
G1 X-33.169 Y-10.505 E0.0080
G1 X-32.824 Y-10.595 E0.0080
G1 X-32.499 Y-10.742 E0.0080
G1 X-32.204 Y-10.942 E0.0080
G1 X-31.946 Y-11.189 E0.0080
; outer perimeter
G1 X-32.172 Y-11.388 F4200
G1 X-31.991 Y-11.633 E0.0069 F900
G1 X-31.853 Y-11.906 E0.0069
G1 X-31.764 Y-12.198 E0.0069
G1 X-31.725 Y-12.501 E0.0069
G1 X-31.738 Y-12.807 E0.0069
G1 X-31.802 Y-13.105 E0.0069
G1 X-31.916 Y-13.389 E0.0069
G1 X-32.076 Y-13.649 E0.0069
G1 X-32.278 Y-13.878 E0.0069
G1 X-32.516 Y-14.070 E0.0069
G1 X-32.783 Y-14.219 E0.0069
G1 X-33.071 Y-14.321 E0.0069
G1 X-33.374 Y-14.373 E0.0069
G1 X-33.525 Y-14.379 E0.0034
G1 X-33.681 Y-14.372 E0.0035
G1 X-33.979 Y-14.321 E0.0068
G1 X-34.267 Y-14.219 E0.0069
G1 X-34.533 Y-14.070 E0.0069
G1 X-34.771 Y-13.878 E0.0069
G1 X-34.973 Y-13.649 E0.0069
G1 X-35.133 Y-13.389 E0.0069
G1 X-35.247 Y-13.105 E0.0069
G1 X-35.312 Y-12.807 E0.0069
G1 X-35.325 Y-12.501 E0.0069
G1 X-35.286 Y-12.198 E0.0069
G1 X-35.196 Y-11.906 E0.0069
G1 X-35.059 Y-11.633 E0.0069
G1 X-34.877 Y-11.388 E0.0069
G1 X-34.656 Y-11.176 E0.0069
G1 X-34.403 Y-11.005 E0.0069
G1 X-34.125 Y-10.879 E0.0069
G1 X-33.829 Y-10.802 E0.0069
G1 X-33.525 Y-10.776 E0.0069
G1 X-33.220 Y-10.802 E0.0069
G1 X-32.924 Y-10.879 E0.0069
G1 X-32.646 Y-11.005 E0.0069
G1 X-32.393 Y-11.176 E0.0069
G1 X-32.172 Y-11.388 E0.0069
G1 E-1.0000 F1200
; inner perimeter
G1 X-49.249 Y-12.135 F4200
G1 E1.0000 F1200
G1 X-49.204 Y-12.489 E0.0080 F1350
G1 X-49.219 Y-12.845 E0.0080
G1 X-49.294 Y-13.193 E0.0080
G1 X-49.427 Y-13.524 E0.0080
G1 X-49.614 Y-13.828 E0.0080
G1 X-49.850 Y-14.096 E0.0080
G1 X-50.127 Y-14.320 E0.0080
G1 X-50.439 Y-14.494 E0.0080
G1 X-50.775 Y-14.613 E0.0080
G1 X-51.117 Y-14.671 E0.0078
G1 X-51.305 Y-14.679 E0.0042
G1 X-51.492 Y-14.671 E0.0042
G1 X-51.832 Y-14.613 E0.0077
G1 X-52.170 Y-14.494 E0.0081
G1 X-52.482 Y-14.320 E0.0080
G1 X-52.760 Y-14.096 E0.0080
G1 X-52.995 Y-13.828 E0.0080
G1 X-53.182 Y-13.524 E0.0080
G1 X-53.315 Y-13.194 E0.0080
G1 X-53.390 Y-12.845 E0.0080
G1 X-53.405 Y-12.489 E0.0080
G1 X-53.360 Y-12.135 E0.0080
G1 X-53.256 Y-11.794 E0.0080
G1 X-53.095 Y-11.475 E0.0080
G1 X-52.883 Y-11.189 E0.0080
G1 X-52.626 Y-10.942 E0.0080
G1 X-52.330 Y-10.742 E0.0080
G1 X-52.005 Y-10.595 E0.0080
G1 X-51.663 Y-10.506 E0.0079
G1 X-51.305 Y-10.475 E0.0081
G1 X-50.949 Y-10.505 E0.0080
G1 X-50.604 Y-10.595 E0.0080
G1 X-50.279 Y-10.742 E0.0080
G1 X-49.984 Y-10.942 E0.0080
G1 X-49.726 Y-11.189 E0.0080
G1 X-49.514 Y-11.475 E0.0080
G1 X-49.354 Y-11.794 E0.0080
G1 X-49.249 Y-12.135 E0.0080
; outer perimeter
G1 X-49.544 Y-12.198 F4200
G1 X-49.505 Y-12.501 E0.0069 F900
G1 X-49.518 Y-12.807 E0.0069
G1 X-49.582 Y-13.105 E0.0069
G1 X-49.696 Y-13.389 E0.0069
G1 X-49.856 Y-13.649 E0.0069
G1 X-50.058 Y-13.878 E0.0069
G1 X-50.296 Y-14.070 E0.0069
G1 X-50.563 Y-14.219 E0.0069
G1 X-50.851 Y-14.321 E0.0069
G1 X-51.149 Y-14.372 E0.0068
G1 X-51.305 Y-14.379 E0.0035
G1 X-51.461 Y-14.372 E0.0035
G1 X-51.756 Y-14.322 E0.0067
G1 X-52.047 Y-14.219 E0.0069
G1 X-52.313 Y-14.070 E0.0069
G1 X-52.551 Y-13.878 E0.0069
G1 X-52.753 Y-13.649 E0.0069
G1 X-52.913 Y-13.389 E0.0069
G1 X-53.027 Y-13.105 E0.0069
G1 X-53.092 Y-12.807 E0.0069
G1 X-53.105 Y-12.501 E0.0069
G1 X-53.066 Y-12.198 E0.0069
G1 X-52.976 Y-11.906 E0.0069
G1 X-52.839 Y-11.633 E0.0069
G1 X-52.657 Y-11.388 E0.0069
G1 X-52.436 Y-11.176 E0.0069
G1 X-52.183 Y-11.005 E0.0069
G1 X-51.905 Y-10.879 E0.0069
G1 X-51.612 Y-10.803 E0.0068
G1 X-51.305 Y-10.776 E0.0069
G1 X-51.000 Y-10.802 E0.0069
G1 X-50.704 Y-10.879 E0.0069
G1 X-50.426 Y-11.005 E0.0069
G1 X-50.173 Y-11.176 E0.0069
G1 X-49.952 Y-11.388 E0.0069
G1 X-49.771 Y-11.633 E0.0069
G1 X-49.633 Y-11.906 E0.0069
G1 X-49.544 Y-12.198 E0.0069
; inner perimeter
G1 X-49.984 Y-33.167 F4200
G1 X-49.726 Y-33.414 E0.0080 F1350
G1 X-49.514 Y-33.700 E0.0080
G1 X-49.354 Y-34.019 E0.0080
G1 X-49.249 Y-34.360 E0.0080
G1 X-49.204 Y-34.714 E0.0080
G1 X-49.219 Y-35.070 E0.0080
G1 X-49.294 Y-35.419 E0.0080
G1 X-49.427 Y-35.749 E0.0080
G1 X-49.614 Y-36.053 E0.0080
G1 X-49.850 Y-36.321 E0.0080
G1 X-50.127 Y-36.545 E0.0080
G1 X-50.439 Y-36.719 E0.0080
G1 X-50.775 Y-36.838 E0.0080
G1 X-51.117 Y-36.896 E0.0078
G1 X-51.305 Y-36.904 E0.0042
G1 X-51.492 Y-36.896 E0.0042
G1 X-51.832 Y-36.838 E0.0077
G1 X-52.170 Y-36.719 E0.0081
G1 X-52.482 Y-36.545 E0.0080
G1 X-52.760 Y-36.321 E0.0080
G1 X-52.995 Y-36.053 E0.0080
G1 X-53.182 Y-35.749 E0.0080
G1 X-53.315 Y-35.419 E0.0080
G1 X-53.390 Y-35.070 E0.0080
G1 X-53.405 Y-34.714 E0.0080
G1 X-53.360 Y-34.360 E0.0080
G1 X-53.256 Y-34.019 E0.0080
G1 X-53.095 Y-33.700 E0.0080
G1 X-52.883 Y-33.414 E0.0080
G1 X-52.626 Y-33.167 E0.0080
G1 X-52.330 Y-32.967 E0.0080
G1 X-52.005 Y-32.820 E0.0080
G1 X-51.663 Y-32.731 E0.0079
G1 X-51.305 Y-32.700 E0.0081
G1 X-50.949 Y-32.730 E0.0080
G1 X-50.604 Y-32.820 E0.0080
G1 X-50.279 Y-32.967 E0.0080
G1 X-49.984 Y-33.167 E0.0080
; outer perimeter
G1 X-50.173 Y-33.401 F4200
G1 X-49.952 Y-33.613 E0.0069 F900
G1 X-49.771 Y-33.858 E0.0069
G1 X-49.633 Y-34.131 E0.0069
G1 X-49.544 Y-34.423 E0.0069
G1 X-49.505 Y-34.726 E0.0069
G1 X-49.518 Y-35.032 E0.0069
G1 X-49.582 Y-35.330 E0.0069
G1 X-49.696 Y-35.614 E0.0069
G1 X-49.856 Y-35.874 E0.0069
G1 X-50.058 Y-36.103 E0.0069
G1 X-50.296 Y-36.295 E0.0069
G1 X-50.563 Y-36.444 E0.0069
G1 X-50.851 Y-36.546 E0.0069
G1 X-51.149 Y-36.597 E0.0068
G1 X-51.305 Y-36.604 E0.0035
G1 X-51.461 Y-36.597 E0.0035
G1 X-51.756 Y-36.547 E0.0067
G1 X-52.047 Y-36.444 E0.0069
G1 X-52.313 Y-36.295 E0.0069
G1 X-52.551 Y-36.103 E0.0069
G1 X-52.753 Y-35.874 E0.0069
G1 X-52.913 Y-35.614 E0.0069
G1 X-53.027 Y-35.330 E0.0069
G1 X-53.092 Y-35.032 E0.0069
G1 X-53.105 Y-34.726 E0.0069
G1 X-53.066 Y-34.423 E0.0069
